X:0254
M:2/4
L:1/8
Q:1/2=84
K:D
  A>FD>F|E>FGB|AF D/E/F/G/|Add   :|
  g>feg |f>dcA|Bd e/d/c/B/|Add   :|

